src/assets/icons/androidstudio.svg

<svg xmlns="http://www.w3.org/2000/svg" width="256" height="256" viewBox="0 0 256 256" fill="none">
<rect width="256" height="256" rx="60" fill="#242938"/>
<path d="M107.028 48.8181H60.7888C51.5798 48.8181 44.0108 56.6801 44.0108 66.4151C43.6818 75.8111 50.9178 83.6701 59.9698 84.0111H107.522L107.028 48.8181Z" fill="#073042"/>
<path d="M211.835 205.303H60.7887C51.4147 205.303 44.0107 197.445 44.0107 187.707V66.2461C44.0107 75.9821 51.5797 83.8411 60.7887 84.0111H187.321C187.321 84.0111 212 81.7931 212 101.097V205.303H211.835Z" fill="#4285F4"/>
<path d="M141.413 143.12C148.159 137.825 149.475 127.917 144.379 121.082C141.579 117.324 137.301 114.933 132.692 114.761H133.186C134.011 114.591 134.997 114.591 135.823 114.761V105.024C135.823 103.828 135.327 102.803 134.34 102.292C132.858 101.437 131.049 101.95 130.227 103.487C129.897 104 129.733 104.512 129.897 105.195V115.102C121.671 116.469 115.912 124.499 117.225 133.213V133.383C117.886 137.483 120.027 141.242 123.316 143.633L95.5088 205.474H113.609L126.441 177.116C127.925 173.698 131.872 172.162 135.327 173.87C136.646 174.554 137.795 175.749 138.453 177.116L151.783 205.474H170.209L141.413 143.12ZM132.036 140.387C126.77 140.387 122.657 135.945 122.657 130.48C122.657 125.011 126.935 120.741 132.199 120.911C134.667 120.911 136.81 121.937 138.617 123.647C142.401 127.403 142.401 133.554 138.781 137.483C137.137 139.192 134.667 140.387 132.036 140.387Z" fill="#3870B2"/>
<path d="M96.9917 57.363H161.818V69.662H96.9917V57.363Z" fill="white"/>
<path d="M127.1 120.741C132.199 120.741 136.48 125.183 136.316 130.649C136.316 135.945 132.036 140.387 126.77 140.216C121.671 140.216 117.556 135.775 117.556 130.48C117.556 127.917 118.542 125.524 120.357 123.647C122.164 121.766 124.63 120.741 127.1 120.741ZM130.72 115.102V104.853C130.72 103.657 130.227 102.633 129.24 102.119C127.76 101.265 125.949 101.778 125.123 103.316C124.793 103.828 124.63 104.341 124.793 105.024V114.933C116.567 116.298 110.808 124.33 112.129 133.042V133.213C112.788 137.31 114.924 141.07 118.215 143.46L83.1688 221.532C81.8538 224.268 82.0178 227.682 83.8278 230.245C86.4568 234.173 91.5618 235.198 95.3418 232.466C96.6628 231.611 97.6488 230.245 98.3058 228.878L121.671 176.944C123.151 173.528 127.1 171.99 130.556 173.698C131.872 174.382 133.022 175.579 133.681 176.944L157.539 228.366C159.516 232.636 164.449 234.344 168.566 232.293C172.676 230.245 174.323 225.119 172.347 220.848L136.316 143.12C142.896 137.652 144.049 127.575 138.781 120.741C136.81 118.007 134.011 116.128 130.72 115.102Z" fill="#073042"/>
<path d="M152.276 68.296C149.805 68.296 147.831 66.415 147.831 63.854C147.831 62.658 148.323 61.292 149.146 60.437C150.957 58.73 153.591 58.73 155.401 60.437C156.222 61.292 156.716 62.487 156.716 63.683C156.552 66.246 154.742 68.125 152.276 68.296ZM103.572 68.125C101.1 68.125 99.1288 66.075 99.1288 63.683C99.1288 62.487 99.6238 61.292 100.443 60.437C101.925 58.559 104.726 58.216 106.533 59.756H106.698C108.506 61.463 108.67 64.366 107.028 66.246L106.533 66.927C105.712 67.782 104.562 68.296 103.406 68.296L103.572 68.125ZM153.591 40.62L162.311 24.904C162.804 24.05 162.475 23.025 161.818 22.342C160.995 22 160.174 22.171 159.681 22.855L150.629 39.083C136.151 32.421 119.698 32.421 105.383 39.083L96.4978 23.025C96.1688 22.513 95.5088 22 94.8488 22C94.1918 22 93.5328 22.342 93.2018 23.025C92.8738 23.538 92.8738 24.391 93.2018 24.904L102.09 40.62C86.6208 49.33 76.5848 65.734 75.1078 83.841H180.737C179.424 65.564 169.221 49.33 153.755 40.62" fill="#3DDC84"/>
<path d="M197.37 117.839H190.459C190.128 118.007 189.8 118.349 189.8 118.861V232.466C189.8 232.977 190.128 233.319 190.625 233.319H197.863C206.254 233.319 213 226.143 213 217.603V101.95C213 110.662 206.254 117.667 197.863 117.667H197.37V117.839Z" fill="#073042"/>
</svg>

<svg xmlns="http://www.w3.org/2000/svg" width="256" height="256" fill="none"><rect width="256" height="256" rx="60" fill="#242938"/><path d="M107.028 48.818h-46.24c-9.208 0-16.777 7.862-16.777 17.597-.33 9.396 6.907 17.255 15.959 17.596h47.552l-.494-35.193z" fill="#073042"/><path d="M211.835 205.303H60.789c-9.374 0-16.778-7.858-16.778-17.596V66.247c0 9.735 7.569 17.594 16.778 17.764H187.32S212 81.793 212 101.097v104.206h-.165z" fill="#4285F4"/><path d="M141.413 143.12c6.746-5.295 8.062-15.203 2.966-22.038-2.8-3.758-7.078-6.149-11.687-6.321h.494a6.881 6.881 0 0 1 2.637 0v-9.737c0-1.196-.496-2.221-1.483-2.732-1.482-.855-3.291-.342-4.113 1.195-.33.513-.494 1.025-.33 1.708v9.907c-8.226 1.367-13.985 9.397-12.672 18.111v.17c.661 4.1 2.802 7.859 6.091 10.25l-27.807 61.841h18.1l12.832-28.358c1.484-3.418 5.431-4.954 8.886-3.246 1.319.684 2.468 1.879 3.126 3.246l13.33 28.358h18.426l-28.796-62.354zm-9.377-2.733c-5.266 0-9.379-4.442-9.379-9.907 0-5.469 4.278-9.739 9.542-9.569 2.468 0 4.611 1.026 6.418 2.736 3.784 3.756 3.784 9.907.164 13.836-1.644 1.709-4.114 2.904-6.745 2.904z" fill="#3870B2"/><path d="M96.992 57.363h64.826v12.299H96.992V57.363z" fill="#fff"/><path d="M127.1 120.741c5.099 0 9.38 4.442 9.216 9.908 0 5.296-4.28 9.738-9.546 9.567-5.099 0-9.214-4.441-9.214-9.736 0-2.563.986-4.956 2.801-6.833 1.807-1.881 4.273-2.906 6.743-2.906zm3.62-5.639v-10.249c0-1.196-.493-2.22-1.48-2.734-1.48-.854-3.291-.341-4.117 1.197-.33.512-.493 1.025-.33 1.708v9.909c-8.226 1.365-13.985 9.397-12.664 18.109v.171c.659 4.097 2.795 7.857 6.086 10.247l-35.046 78.072c-1.315 2.736-1.151 6.15.659 8.713 2.629 3.928 7.734 4.953 11.514 2.221 1.32-.855 2.307-2.221 2.964-3.588l23.365-51.934c1.48-3.416 5.429-4.954 8.885-3.246 1.316.684 2.466 1.881 3.125 3.246l23.858 51.422c1.977 4.27 6.91 5.978 11.027 3.927 4.11-2.048 5.757-7.174 3.781-11.445l-36.031-77.728c6.58-5.468 7.733-15.545 2.465-22.379-1.971-2.734-4.77-4.613-8.061-5.639z" fill="#073042"/><path d="M152.276 68.296c-2.471 0-4.445-1.881-4.445-4.442 0-1.196.492-2.562 1.315-3.417 1.811-1.707 4.445-1.707 6.255 0a4.766 4.766 0 0 1 1.315 3.246c-.164 2.563-1.974 4.442-4.44 4.613zm-48.704-.171c-2.472 0-4.443-2.05-4.443-4.442 0-1.196.495-2.391 1.314-3.246 1.482-1.878 4.283-2.221 6.09-.681h.165c1.808 1.707 1.972 4.61.33 6.49l-.495.681c-.821.855-1.971 1.369-3.127 1.369l.166-.171zm50.019-27.505 8.72-15.716c.493-.854.164-1.879-.493-2.562-.823-.342-1.644-.171-2.137.513l-9.052 16.228c-14.478-6.662-30.931-6.662-45.246 0l-8.885-16.058c-.33-.512-.99-1.025-1.65-1.025-.656 0-1.315.342-1.646 1.025-.328.513-.328 1.366 0 1.879l8.888 15.716c-15.47 8.71-25.505 25.114-26.982 43.221h105.629c-1.313-18.277-11.516-34.511-26.982-43.221" fill="#3DDC84"/><path d="M197.37 117.839h-6.911c-.331.168-.659.51-.659 1.022v113.605c0 .511.328.853.825.853h7.238c8.391 0 15.137-7.176 15.137-15.716V101.95c0 8.712-6.746 15.717-15.137 15.717h-.493v.172z" fill="#073042"/></svg>
